lg/strapi.svg

<svg viewBox="0 0 512 133" version="1.1" xmlns="http://www.w3.org/2000/svg" preserveAspectRatio="xMidYMid" height="1em" width="1em">
  <g fill-rule="evenodd">
    <g transform="translate(0.000000, 20.378770)" fill="#8E75FF">
      <path d="M110.293362,0 L36.0244738,0 L36.0244738,37.2379068 L72.5683191,37.2379068 C73.8702232,37.2379068 74.9264037,38.2940873 74.9264037,39.5959914 L74.9264037,75.6354566 L112.651451,75.6354566 L112.651451,2.36239557 C112.652592,1.73624605 112.404657,1.13534991 111.962306,0.692190447 C111.519955,0.24903098 110.919513,0 110.293362,0 Z"/>
      <path d="M36.0201629,7.1193323e-15 L36.0201629,37.2379068 L1.17913922,37.2379068 C0.700376085,37.2370577 0.269477503,36.9472967 0.0880914206,36.5042234 C-0.0932946619,36.0611501 0.0107117049,35.5524088 0.351438579,35.2160755 L36.0201629,7.1193323e-15 L36.0201629,7.1193323e-15 Z M76.9353022,110.890331 C76.5961072,111.22349 76.0902271,111.32081 75.6516331,111.137278 C75.213039,110.953746 74.927234,110.525142 74.9264037,110.049697 L74.9264037,75.6354566 L112.651447,75.6354566 L76.9353022,110.88602 L76.9353022,110.890331 L76.9353022,110.890331 Z" opacity="0.405"/>
      <path d="M36.0201629,37.2379068 L73.7495169,37.2379068 C74.396158,37.2379068 74.9264037,37.7638415 74.9264037,38.4147936 L74.9264037,75.6354566 L38.3825584,75.6354566 C37.0802243,75.6354566 36.0244738,74.5797061 36.0244738,73.277372 L36.0244738,37.2379068 L36.0201629,37.2379068 L36.0201629,37.2379068 Z" opacity="0.405"/>
    </g>
    <path d="M493.070419,18.0293077 C495.178469,20.1158031 497.665882,21.1547398 500.536968,21.1547398 C503.498585,21.1547398 506.033418,20.1158031 508.141468,18.0293077 C510.249518,15.9428124 511.301388,13.4855761 511.301388,10.6446661 C511.301388,7.80806707 510.249518,5.32496516 508.141468,3.1953604 C506.161117,1.11943716 503.405719,-0.0380178161 500.536968,0.000953254906 C497.665882,0.000953254906 495.178469,1.06575564 493.070419,3.19104946 C490.962369,5.32496516 489.910499,7.80375613 489.910499,10.6489771 C489.910499,13.4855761 490.962369,15.9428124 493.070419,18.0293077 Z M264.331899,45.2399662 C264.331899,45.4555132 264.15084,45.6365727 263.930982,45.6365727 L249.1229,45.6365727 L249.1229,73.3128127 C249.1229,75.6191661 249.709188,77.3047439 250.873142,78.3695463 C252.037096,79.4343487 253.744229,80.0292585 255.985918,80.1628977 C258.037926,80.287915 260.538271,80.2792931 263.491266,80.141343 L263.909427,80.1197883 C264.018296,80.1138626 264.124803,80.153017 264.203911,80.228047 C264.283019,80.3030771 264.32775,80.4073649 264.327588,80.5163949 L264.327588,95.3072328 C264.328792,95.5104853 264.176143,95.6817499 263.974091,95.7038393 L263.702502,95.7340159 C252.106071,96.9540122 243.902351,95.8202347 239.099963,92.3369946 C234.211356,88.7890903 231.771363,82.4476963 231.771363,73.3128127 L231.771363,45.6365727 L220.459455,45.6365727 C220.240415,45.6365727 220.062848,45.4590059 220.062848,45.2399662 L220.062848,29.5352088 C220.062848,29.3196617 220.239597,29.1386022 220.459455,29.1386022 L231.767052,29.1386022 L231.767052,18.158636 C231.767052,17.8396263 231.956734,17.5551043 232.245567,17.425776 L248.566789,10.3256565 C248.68969,10.2699153 248.832502,10.2804934 248.94585,10.3537336 C249.059198,10.4269739 249.127526,10.5528245 249.127211,10.6877755 L249.127211,29.1386022 L263.930982,29.1386022 C264.146529,29.1386022 264.327588,29.3153508 264.327588,29.5352088 L264.327588,45.2399662 L264.331899,45.2399662 L264.331899,45.2399662 Z M295.801767,40.5841501 C297.414059,36.3249406 300.082532,33.1305334 303.802873,31.0009287 C307.473298,28.9112349 311.624038,27.8118978 315.847642,27.8108325 C316.0675,27.8108325 316.24856,27.987581 316.24856,28.2117499 L316.24856,46.2530373 C316.24856,46.4356019 316.170797,46.6095323 316.035302,46.7318885 C315.899807,46.8542447 315.718904,46.9136242 315.537254,46.8953674 C310.532252,46.4470296 306.035941,47.5376976 302.052631,50.1630606 C297.883952,52.9091299 295.801767,57.4787271 295.801767,63.8675414 L295.801767,95.2684343 C295.801774,95.3743721 295.759397,95.4759094 295.684084,95.5504127 C295.608771,95.6249161 295.506781,95.6661924 295.40085,95.6650643 L278.838215,95.6650643 C278.619175,95.6650643 278.441609,95.4874741 278.441609,95.2684343 L278.441609,29.5308978 C278.441609,29.3153508 278.618357,29.1342913 278.838215,29.1342913 L295.40085,29.1342913 C295.616397,29.1342913 295.797456,29.3110399 295.797456,29.5308978 L295.797456,40.5755282 L295.801767,40.5841501 L295.801767,40.5841501 Z M377.864837,29.1386022 C377.758905,29.1374507 377.656916,29.178727 377.581603,29.2532304 C377.506289,29.3277337 377.463913,29.429271 377.463919,29.5352088 L377.463919,36.9931364 C372.264925,30.5137923 364.953569,27.2762758 355.534163,27.2762758 C346.567406,27.2762758 338.872377,30.6689862 332.462008,37.4544071 C326.047328,44.2398279 322.839988,52.5556327 322.839988,62.4018215 C322.839988,72.2480104 326.047328,80.5638152 332.462008,87.349236 C338.872377,94.1346569 346.567406,97.5273673 355.534163,97.5273673 C364.953569,97.5273673 372.260614,94.2898508 377.463919,87.8148176 L377.463919,95.2684343 C377.463919,95.4839814 377.644979,95.6650409 377.864837,95.6650409 L394.42316,95.6650409 C394.643018,95.6650409 394.824078,95.4882923 394.824078,95.2684343 L394.824078,29.5308978 C394.824078,29.42496 394.781708,29.3234228 394.706394,29.2489194 C394.631081,29.1744161 394.529092,29.1331398 394.42316,29.1342913 L377.864837,29.1342913 L377.864837,29.1386022 L377.864837,29.1386022 Z M345.446562,75.9726632 C348.942735,79.4343487 353.378693,81.163036 358.767369,81.163036 C364.147423,81.163036 368.609247,79.4084831 372.15284,75.9036882 C375.696433,72.4032042 377.463919,67.902582 377.463919,62.4018215 C377.463919,56.9010611 375.696433,52.4004389 372.15284,48.895644 C368.609247,45.39516 364.147423,43.6406071 358.763058,43.6406071 C353.383004,43.6406071 348.942735,45.39516 345.442251,48.8999549 C341.950389,52.4004389 340.195836,56.9010611 340.195836,62.4018215 C340.195836,67.902582 341.946078,72.4247589 345.446562,75.9726632 L345.446562,75.9726632 Z M471.972675,37.4544071 C465.557995,30.6689862 457.819856,27.2762758 448.762569,27.2762758 C439.343164,27.2762758 432.079228,30.5137923 426.966453,36.9888254 L426.966453,29.5352088 C426.966453,29.316169 426.788886,29.1386022 426.569846,29.1386022 L410.007211,29.1386022 C409.788172,29.1386022 409.610605,29.316169 409.610605,29.5352088 L409.610605,121.875561 C409.610605,122.095419 409.787353,122.276479 410.007211,122.276479 L426.569846,122.276479 C426.785393,122.276479 426.966453,122.095419 426.966453,121.875561 L426.966453,87.8148176 C432.079228,94.2898508 439.343164,97.5273673 448.762569,97.5273673 C457.819856,97.5273673 465.557995,94.1346569 471.972675,87.349236 C478.383044,80.5638152 481.590384,72.2480104 481.590384,62.4018215 C481.590384,52.5556327 478.383044,44.2398279 471.972675,37.4544071 Z M432.212868,75.9726632 C435.713351,79.4343487 440.14931,81.163036 445.533675,81.163036 C450.913729,81.163036 455.375553,79.4084831 458.919146,75.9036882 C462.462739,72.4032042 464.234536,67.902582 464.234536,62.4018215 C464.234536,56.9010611 462.462739,52.4004389 458.919146,48.895644 C455.375553,45.39516 450.913729,43.6406071 445.533675,43.6406071 C440.14931,43.6406071 435.713351,45.39516 432.212868,48.8999549 C428.716695,52.4004389 426.966453,56.9010611 426.966453,62.4018215 C426.966453,67.902582 428.716695,72.4247589 432.212868,75.9726632 L432.212868,75.9726632 Z M492.324626,95.6650409 C492.105586,95.6650409 491.92802,95.4874741 491.92802,95.2684343 L491.92802,29.5308978 C491.92802,29.3153508 492.104768,29.1342913 492.324626,29.1342913 L508.887261,29.1342913 C509.107119,29.1342913 509.283867,29.3110399 509.283867,29.5308978 L509.283867,95.2727453 C509.283867,95.491785 509.106301,95.6693518 508.887261,95.6693518 L492.324626,95.6693518 L492.324626,95.6650409 L492.324626,95.6650409 Z M182.86374,52.3573294 C180.484101,51.2494177 179.298592,49.8052525 179.298592,48.0334558 C179.298592,46.347878 180.035763,45.0157972 181.518726,44.0415246 C182.997379,43.067252 184.859705,42.5758047 187.101395,42.5758047 C191.399403,42.5758047 194.645541,44.235517 196.844121,47.5506304 C196.99544,47.7829048 197.291268,47.8736495 197.546804,47.7661775 L212.195381,41.3558085 C212.297818,41.3098736 212.375989,41.2226775 212.410502,41.1158499 C212.445016,41.0090223 212.432638,40.8925722 212.376441,40.7953862 C212.207742,40.5143168 212.035288,40.2355176 211.859128,39.9590637 C209.354471,36.0576622 206.108333,33.1477772 202.034494,30.9362645 C197.551115,28.496272 192.571979,27.2762758 187.101395,27.2762758 C179.833148,27.2762758 173.759033,29.1601569 168.866115,32.9322301 C163.981819,36.6999924 161.537516,41.8688104 161.537516,48.4300624 C161.537516,52.7798016 162.727335,56.3923701 165.102664,59.2763895 C167.398307,62.0999025 170.388838,64.2778059 173.780588,65.5962287 C177.186231,66.9239985 180.596185,68.0362212 184.006139,68.9199641 C187.411782,69.8080179 190.308735,70.8081561 192.684063,71.9160679 C195.059391,73.0239797 196.249211,74.4638339 196.249211,76.2399416 C196.249211,80.0551242 193.153956,81.96056 186.967756,81.96056 C181.074699,81.96056 176.992238,79.8050896 174.720373,75.5027707 C174.531113,75.1263841 174.081749,74.9621205 173.694369,75.1277188 L159.088901,81.5294659 C158.990481,81.5726531 158.913803,81.6539351 158.876421,81.7547032 C158.83904,81.8554713 158.844156,81.9670962 158.890598,82.0640226 L159.054414,82.395965 C164.158568,92.4835666 173.461578,97.5273673 186.967756,97.5273673 C194.680029,97.5273673 201.116263,95.6865956 206.272148,92.0093631 C211.432345,88.3235087 214.010287,83.0684718 214.010287,76.2399416 C214.010287,71.7134537 212.820468,67.9456914 210.445139,64.9280329 C208.205687,62.0160186 205.20137,59.783302 201.767215,58.4788654 C198.424773,57.2130594 195.010274,56.1463882 191.541664,55.2844583 C188.13171,54.4395139 185.239068,53.4652412 182.86374,52.3530185 L182.86374,52.3573294 L182.86374,52.3573294 Z" fill="#2F2E8B"/>
  </g>
</svg>

<svg viewBox="0 0 512 133" xmlns="http://www.w3.org/2000/svg" preserveAspectRatio="xMidYMid" height="1em" width="1em">
  <g fill-rule="evenodd">
    <g fill="#8E75FF">
      <path d="M110.293 20.379H36.024v37.238h36.544a2.359 2.359 0 0 1 2.358 2.358v36.04h37.725V22.74a2.358 2.358 0 0 0-2.358-2.362Z"/>
      <path d="M36.02 20.379v37.238H1.18a1.181 1.181 0 0 1-.829-2.022l35.67-35.216Zm40.915 110.89a1.181 1.181 0 0 1-2.009-.84V96.013h37.725l-35.716 35.25v.005Z" opacity=".405"/>
      <path d="M36.02 57.617h37.73c.646 0 1.176.526 1.176 1.177v37.22H38.383a2.358 2.358 0 0 1-2.359-2.358v-36.04h-.004Z" opacity=".405"/>
    </g>
    <path d="M493.07 18.03c2.108 2.086 4.596 3.125 7.467 3.125 2.962 0 5.496-1.04 7.604-3.126 2.109-2.086 3.16-4.543 3.16-7.384 0-2.837-1.051-5.32-3.16-7.45a10.316 10.316 0 0 0-7.604-3.194c-2.871 0-5.359 1.065-7.467 3.19-2.108 2.134-3.16 4.613-3.16 7.458 0 2.837 1.052 5.294 3.16 7.38ZM264.332 45.24a.402.402 0 0 1-.401.397h-14.808v27.676c0 2.306.586 3.992 1.75 5.057 1.164 1.064 2.871 1.66 5.113 1.793 2.052.125 4.552.116 7.505-.022l.418-.021a.397.397 0 0 1 .419.396v14.791a.397.397 0 0 1-.354.397l-.271.03c-11.597 1.22-19.8.086-24.603-3.397-4.889-3.548-7.329-9.89-7.329-19.024V45.637H220.46a.397.397 0 0 1-.396-.397V29.535c0-.215.177-.396.396-.396h11.308v-10.98c0-.32.19-.604.479-.733l16.32-7.1a.397.397 0 0 1 .561.362v18.45h14.804c.216 0 .397.177.397.397V45.24h.004Zm31.47-4.656c1.612-4.26 4.28-7.453 8-9.583a24.357 24.357 0 0 1 12.046-3.19.4.4 0 0 1 .4.4v18.042a.646.646 0 0 1-.71.642c-5.006-.448-9.502.643-13.485 3.268-4.169 2.746-6.251 7.316-6.251 13.705v31.4a.397.397 0 0 1-.401.397h-16.563a.397.397 0 0 1-.396-.397V29.531c0-.216.176-.397.396-.397h16.563c.215 0 .396.177.396.397v11.045l.005.008Zm82.063-11.445a.397.397 0 0 0-.401.396v7.458c-5.2-6.48-12.51-9.717-21.93-9.717-8.967 0-16.662 3.393-23.072 10.178-6.415 6.786-9.622 15.102-9.622 24.948s3.207 18.162 9.622 24.947c6.41 6.786 14.105 10.178 23.072 10.178 9.42 0 16.727-3.237 21.93-9.712v7.453c0 .216.181.397.4.397h16.56a.4.4 0 0 0 .4-.397V29.531a.397.397 0 0 0-.4-.397h-16.56v.005Zm-32.418 46.834c3.496 3.461 7.932 5.19 13.32 5.19 5.38 0 9.842-1.755 13.386-5.26 3.543-3.5 5.31-8 5.31-13.501 0-5.5-1.767-10.002-5.31-13.506-3.544-3.5-8.006-5.255-13.39-5.255-5.38 0-9.82 1.754-13.32 5.259-3.493 3.5-5.247 8.001-5.247 13.502 0 5.5 1.75 10.023 5.25 13.57Zm126.526-38.519c-6.415-6.785-14.153-10.178-23.21-10.178-9.42 0-16.684 3.238-21.797 9.713v-7.454a.397.397 0 0 0-.396-.396h-16.563a.397.397 0 0 0-.396.396v92.34c0 .22.176.401.396.401h16.563a.402.402 0 0 0 .396-.4V87.815c5.113 6.475 12.377 9.712 21.797 9.712 9.057 0 16.795-3.392 23.21-10.178 6.41-6.785 9.617-15.101 9.617-24.947 0-9.846-3.207-18.162-9.617-24.948Zm-39.76 38.519c3.5 3.461 7.936 5.19 13.32 5.19 5.38 0 9.843-1.755 13.386-5.26 3.544-3.5 5.316-8 5.316-13.501 0-5.5-1.772-10.002-5.316-13.506-3.543-3.5-8.005-5.255-13.385-5.255-5.385 0-9.82 1.754-13.321 5.259-3.496 3.5-5.247 8.001-5.247 13.502 0 5.5 1.75 10.023 5.247 13.57Zm60.112 19.692a.397.397 0 0 1-.397-.397V29.531c0-.216.177-.397.397-.397h16.562c.22 0 .397.177.397.397v65.742a.397.397 0 0 1-.397.396h-16.562v-.004ZM182.864 52.357c-2.38-1.108-3.565-2.552-3.565-4.324 0-1.685.737-3.017 2.22-3.991 1.478-.975 3.34-1.466 5.582-1.466 4.298 0 7.545 1.66 9.743 4.975a.573.573 0 0 0 .703.215l14.648-6.41a.397.397 0 0 0 .181-.56c-.168-.282-.34-.56-.517-.837-2.505-3.901-5.75-6.811-9.825-9.023-4.483-2.44-9.462-3.66-14.933-3.66-7.268 0-13.342 1.884-18.235 5.656-4.884 3.768-7.328 8.937-7.328 15.498 0 4.35 1.19 7.962 3.565 10.846a20.981 20.981 0 0 0 8.678 6.32 91.042 91.042 0 0 0 10.225 3.324c3.406.888 6.303 1.888 8.678 2.996 2.375 1.108 3.565 2.548 3.565 4.324 0 3.815-3.095 5.72-9.281 5.72-5.893 0-9.976-2.155-12.248-6.457a.798.798 0 0 0-1.026-.375l-14.605 6.401a.397.397 0 0 0-.198.535l.163.332c5.105 10.088 14.408 15.131 27.914 15.131 7.712 0 14.148-1.84 19.304-5.518 5.16-3.685 7.738-8.94 7.738-15.77 0-4.526-1.19-8.293-3.565-11.311a19.83 19.83 0 0 0-8.678-6.45 90.491 90.491 0 0 0-10.225-3.194c-3.41-.844-6.303-1.819-8.678-2.931v.004Z" fill="#2F2E8B"/>
  </g>
</svg>
